X:257
T:Pepper in the Brandy
R:polka 32
C:John Kirkpatrick; (c) Free Reed Music
B:Opus Pocus - John Kirkpatrick & Sue Harris 1988 Dragonfly Music
Z:P J Headford 2005
M:4/4
L:1/8
Q:1/4=180
K:G
|:GBdg e2d2|GBdg e2d2|c2Ac B2GB|ABAG E2D2|
GBdg e2d2|GBdg e2d2|c2Ac B2GB|AEFD G4:|]
|:AGFA d2d2|BAGB d2d2|cdef g2d2|c2B2 A4|
AGFA d2d2|BAGB d2d2|cdef g2d2|b2a2 g4:|]

